; HEADER_BLOCK_START
; generated by OrcaSlicer 2.2.0 on 2025-01-30 at 14:35:53
; total layer number: 450
; filament_density: 1.24
; filament_diameter: 1.75
; max_z_height: 90.00
; HEADER_BLOCK_END

; THUMBNAIL_BLOCK_START

;
; THUMBNAIL_BLOCK_END

; THUMBNAIL_BLOCK_START

;
; THUMBNAIL_BLOCK_END

; external perimeters extrusion width = 0.45mm
; perimeters extrusion width = 0.45mm
; infill extrusion width = 0.45mm
; solid infill extrusion width = 0.45mm
; top infill extrusion width = 0.40mm
; support material extrusion width = 0.38mm
; first layer extrusion width = 0.42mm

; EXECUTABLE_BLOCK_START
M73 P0 R299
;TYPE:Custom
G90 ; use absolute coordinates
M83 ; extruder relative mode
M140 S70 ; set bed temp
M190 S70 ; wait for bed temp
G28 ; home all
BED_MESH_CALIBRATE
M104 S205 ; set extruder temp
M109 S205 ; wait for extruder temp
G1 Z2 F240
G1 X2 Y10 F3000
G1 Z0.28 F240
G92 E0
G1 Y190 E15 F1500 ; intro line
G1 X2.3 F5000
G92 E0
G1 Y10 E15 F1200 ; intro line
G92 E0
G90
G21
M83 ; use relative distances for extrusion
; filament start gcode
SET_PRESSURE_ADVANCE ADVANCE=0.42; Override pressure advance value
M106 S0
;LAYER_CHANGE
;Z:0.2
;HEIGHT:0.2
;BEFORE_LAYER_CHANGE
;0.2
G92 E0

G1 E-5 F2400
;_SET_FAN_SPEED_CHANGING_LAYER
; printing object densimetro corpo.stl id:3024716707072 copy 0
G1 Z.45 F9000
G1 X37.202 Y35.403
G1 Z.45
G1 Z.2
G1 E5 F2400
;TYPE:Brim
;WIDTH:0.42
G1 F900
G1 X37.672 Y34.963 E.01979
G1 X38.202 Y34.597 E.01979
G1 X38.78 Y34.313 E.01979
G1 X39.394 Y34.119 E.01979
G1 X40.033 Y34.017 E.01989
G1 X40.397 Y34.002 E.0112
G1 X130.386 Y34.002 E2.76511
G1 X131.036 Y34.05 E.02001
G1 X131.664 Y34.193 E.01979
G1 X132.264 Y34.426 E.01979
G1 X132.823 Y34.747 E.01979
G1 X133.328 Y35.146 E.01979
G1 X133.769 Y35.616 E.01979
G1 X134.135 Y36.146 E.01979
G1 X134.418 Y36.725 E.01979
G1 X134.613 Y37.339 E.01979
G1 X134.715 Y37.978 E.01989
G1 X134.73 Y38.342 E.0112
G1 X134.73 Y43.331 E.1533
G1 X134.681 Y43.98 E.02001
G1 X134.539 Y44.609 E.01979
G1 X134.305 Y45.209 E.01979
G1 X133.985 Y45.768 E.01979
G1 X133.585 Y46.273 E.01979
G1 X133.115 Y46.713 E.01979
G1 X132.585 Y47.079 E.01979
G1 X132.007 Y47.363 E.01979
G1 X131.393 Y47.557 E.01979
G1 X130.756 Y47.659 E.0198
G1 X129.497 Y47.674 E.03871
G1 X129.371 Y47.724 E.00415
G1 X129.313 Y47.836 E.00386
G1 X127.582 Y59.573 E.36456
G1 X127.384 Y60.721 E.03581
M73 P0 R298
M73 P0 R298
G1 X127.209 Y62.087 E.04231
G1 X126.835 Y64.34 E.07016
G1 X126.702 Y65.35 E.0313
G1 X125.009 Y76.504 E.34668
G1 X124.906 Y77.435 E.02877
G1 X124.738 Y78.396 E.02999
G1 X115.549 Y139.818 E1.90833
G1 X115.095 Y142.841 E.09392
G1 X114.937 Y143.748 E.0283
G1 X114.917 Y144.032 E.00874
G1 X114.787 Y144.898 E.0269
G1 X114.488 Y146.592 E.05287
G1 X112.432 Y160.598 E.43496
G1 X106.318 Y201.036 E1.25667
G1 X105.263 Y208.118 E.22001
G1 X104.973 Y210.125 E.06233
G1 X104.879 Y210.9 E.02398
G1 X104.708 Y211.775 E.02738
G1 X103.727 Y218.481 E.20825
G1 X102.119 Y229.114 E.33045
G1 X101.445 Y233.837 E.14659
G1 X101.341 Y234.517 E.02114
G1 X101.257 Y234.866 E.01102
G1 X101.163 Y235.726 E.02656
G1 X100.558 Y239.467 E.11646
G1 X100.524 Y239.9 E.01335
G1 X100.361 Y241.069 E.03627
G1 X100.096 Y242.828 E.05465
G1 X99.992 Y243.358 E.01659
G1 X99.9 Y244.117 E.0235
G1 X99.737 Y244.742 E.01983
G1 X99.483 Y245.334 E.01979
G1 X99.145 Y245.882 E.01979
G1 X98.73 Y246.374 E.01979
G1 X98.246 Y246.799 E.01979
G1 X97.704 Y247.148 E.01979
G1 X97.117 Y247.413 E.01979
G1 X96.499 Y247.587 E.01972
G1 X95.625 Y247.674 E.02701
G1 X75.16 Y247.674 E.62883
G1 X74.51 Y247.626 E.02001
G1 X73.882 Y247.484 E.01979
G1 X73.282 Y247.25 E.01979
G1 X72.723 Y246.929 E.01979
G1 X72.218 Y246.53 E.01979
G1 X71.777 Y246.06 E.01979
G1 X71.412 Y245.53 E.01979
G1 X71.128 Y244.951 E.01979
G1 X70.934 Y244.339 E.01974
G1 X70.318 Y240.335 E.12447
G1 X70.229 Y239.466 E.02684
G1 X69.801 Y236.893 E.08015
G1 X69.609 Y235.628 E.0393
G1 X69.53 Y234.867 E.02352
G1 X69.446 Y234.517 E.01105
G1 X69.342 Y233.837 E.02114
G1 X68.668 Y229.114 E.14659
G1 X67.06 Y218.481 E.33045
G1 X66.079 Y211.775 E.20825
G1 X65.908 Y210.9 E.02738
G1 X65.814 Y210.125 E.02398
G1 X65.524 Y208.118 E.06233
G1 X64.469 Y201.036 E.22
G1 X58.359 Y160.624 E1.25585
G1 X56.299 Y146.592 E.43579
G1 X56 Y144.899 E.05283
G1 X55.87 Y144.032 E.02695
G1 X55.85 Y143.747 E.00877
G1 X55.71 Y142.971 E.02424
G1 X46.049 Y78.396 E2.00628
G1 X45.881 Y77.435 E.02999
G1 X45.778 Y76.504 E.02877
G1 X44.085 Y65.35 E.34668
G1 X43.952 Y64.34 E.0313
G1 X43.578 Y62.087 E.07016
G1 X43.403 Y60.721 E.04231
G1 X43.205 Y59.573 E.03581
G1 X41.474 Y47.836 E.36456
G1 X41.408 Y47.718 E.00415
G1 X41.288 Y47.674 E.00393
G1 X40.4 Y47.674 E.02727
G1 X39.751 Y47.626 E.02001
G1 X39.123 Y47.484 E.01979
G1 X38.523 Y47.25 E.01979
G1 X37.964 Y46.929 E.01979
G1 X37.459 Y46.53 E.01979
G1 X37.018 Y46.06 E.01979
G1 X36.652 Y45.53 E.01979
G1 X36.369 Y44.951 E.01979
G1 X36.174 Y44.337 E.01979
G1 X36.072 Y43.698 E.01989
G1 X36.057 Y43.334 E.0112
G1 X36.057 Y38.345 E.1533
G1 X36.105 Y37.696 E.02001
G1 X36.248 Y37.068 E.01979
G1 X36.482 Y36.467 E.01979
G1 X36.802 Y35.909 E.01979
G1 X37.177 Y35.435 E.01856
G1 X37.473 Y35.668 F9000
G1 F900
G1 X37.475 Y35.666 E.00008
G1 X37.916 Y35.252 E.01858
G1 X38.4 Y34.919 E.01806
G1 X38.929 Y34.662 E.01806
G1 X39.49 Y34.486 E.01806
G1 X40.065 Y34.394 E.01789
G1 X40.403 Y34.379 E.01041
G1 X130.377 Y34.379 E2.76464
G1 X130.971 Y34.423 E.01833
G1 X131.545 Y34.552 E.01806
G1 X132.093 Y34.765 E.01806
G1 X132.604 Y35.056 E.01806
G1 X133.066 Y35.419 E.01806
G1 X133.469 Y35.848 E.01806
G1 X133.804 Y36.331 E.01806
G1 X134.063 Y36.858 E.01806
G1 X134.246 Y37.434 E.01858
G1 X134.338 Y38.009 E.01789
G1 X134.353 Y38.348 E.01041
G1 X134.353 Y43.313 E.15257
G1 X134.308 Y43.916 E.01858
G1 X134.174 Y44.506 E.01858
G1 X133.96 Y45.053 E.01806
G1 X133.676 Y45.548 E.01755
G1 X133.312 Y46.01 E.01806
G1 X132.871 Y46.424 E.01858
G1 X132.386 Y46.757 E.01806
G1 X131.858 Y47.014 E.01806
G1 X131.314 Y47.187 E.01755
G1 X130.716 Y47.282 E.0186
G1 X129.502 Y47.297 E.03729
G1 X129.348 Y47.328 E.00485
G1 X129.244 Y47.369 E.00343
G1 X129.093 Y47.473 E.00563
G1 X128.983 Y47.654 E.00651
G1 X128.938 Y47.79 E.00439
G1 X127.21 Y59.512 E.36407
G1 X127.009 Y60.676 E.03629
G1 X126.835 Y62.034 E.04208
G1 X126.463 Y64.276 E.06983
G1 X126.328 Y65.298 E.03167
G1 X124.637 Y76.446 E.34646
G1 X124.532 Y77.385 E.02905
G1 X124.365 Y78.342 E.02984
G1 X115.176 Y139.762 E1.90827
G1 X114.723 Y142.779 E.09375
G1 X114.566 Y143.678 E.02804
G1 X114.541 Y143.995 E.00977
G1 X114.415 Y144.836 E.02611
G1 X114.114 Y146.539 E.05315
G1 X112.059 Y160.542 E.43488
G1 X105.945 Y200.979 E1.25665
G1 X104.89 Y208.064 E.22009
G1 X104.6 Y210.07 E.06228
G1 X104.507 Y210.837 E.02374
G1 X104.335 Y211.723 E.02772
G1 X103.354 Y218.425 E.20815
G1 X101.746 Y229.057 E.3304
G1 X101.072 Y233.783 E.14666
G1 X100.971 Y234.44 E.02044
G1 X100.882 Y234.832 E.01235
G1 X100.789 Y235.678 E.02615
G1 X100.187 Y239.402 E.11594
G1 X100.149 Y239.863 E.01419
G1 X99.988 Y241.016 E.03577
G1 X99.725 Y242.761 E.05423
G1 X99.617 Y243.316 E.01738
G1 X99.529 Y244.039 E.02236
G1 X99.381 Y244.611 E.01816
G1 X99.143 Y245.167 E.01858
G1 X98.834 Y245.667 E.01806
G1 X98.453 Y246.115 E.01806
G1 X98.011 Y246.502 E.01806
G1 X97.516 Y246.819 E.01806
G1 X96.98 Y247.06 E.01806
G1 X96.419 Y247.216 E.01788
G1 X95.611 Y247.297 E.02494
G1 X75.178 Y247.297 E.62787
G1 X74.575 Y247.253 E.01858
G1 X74.001 Y247.124 E.01806
G1 X73.453 Y246.912 E.01806
G1 X72.942 Y246.62 E.01806
G1 X72.468 Y246.245 E.01858
G1 X72.067 Y245.816 E.01806
G1 X71.734 Y245.331 E.01806
G1 X71.477 Y244.803 E.01806
G1 X71.301 Y244.244 E.01799
G1 X70.692 Y240.29 E.12293
G1 X70.6 Y239.401 E.02747
G1 X70.173 Y236.833 E.07999
G1 X69.984 Y235.583 E.03884
G1 X69.905 Y234.835 E.02313
G1 X69.816 Y234.44 E.01243
G1 X69.715 Y233.783 E.02045
G1 X69.041 Y229.057 E.14666
G1 X67.433 Y218.425 E.3304
G1 X66.452 Y211.723 E.20815
G1 X66.28 Y210.837 E.02772
G1 X66.187 Y210.07 E.02374
G1 X65.897 Y208.064 E.06228
G1 X64.842 Y200.981 E.22005
G1 X58.731 Y160.569 E1.25586
G1 X56.673 Y146.539 E.43571
G1 X56.372 Y144.837 E.05311
G1 X56.246 Y143.995 E.02616
G1 X56.22 Y143.675 E.00987
G1 X56.082 Y142.908 E.02395
G1 X46.422 Y78.342 E2.00601
G1 X46.255 Y77.385 E.02984
M73 P0 R297
M73 P0 R297
G1 X46.15 Y76.446 E.02905
G1 X44.458 Y65.298 E.34646
G1 X44.324 Y64.276 E.03167
G1 X43.952 Y62.034 E.06983
G1 X43.777 Y60.676 E.04208
G1 X43.577 Y59.512 E.03629
G1 X41.849 Y47.791 E.36405
G1 X41.743 Y47.544 E.00825
G1 X41.62 Y47.409 E.00562
G1 X41.421 Y47.322 E.00665
G1 X41.278 Y47.297 E.00447
G1 X40.41 Y47.297 E.02666
G1 X39.799 Y47.25 E.01884
G1 X39.226 Y47.119 E.01806
G1 X38.679 Y46.904 E.01806
G1 X38.169 Y46.611 E.01806
G1 X37.709 Y46.245 E.01806
G1 X37.308 Y45.816 E.01806
G1 X36.975 Y45.331 E.01806
G1 X36.717 Y44.803 E.01806
G1 X36.545 Y44.258 E.01755
G1 X36.448 Y43.654 E.01881
G1 X36.434 Y43.324 E.01015
G1 X36.434 Y38.363 E.15242
G1 X36.479 Y37.76 E.01858
G1 X36.608 Y37.187 E.01806
G1 X36.82 Y36.638 E.01806
G1 X37.111 Y36.128 E.01806
G1 X37.448 Y35.699 E.01675
G1 X37.745 Y35.934 F9000
G1 F900
G1 X37.76 Y35.916 E.00072
G1 X38.16 Y35.542 E.01682
G1 X38.598 Y35.242 E.01632
G1 X39.077 Y35.011 E.01633
G1 X39.585 Y34.852 E.01634
G1 X40.096 Y34.771 E.01592
G1 X40.409 Y34.756 E.00961
G1 X130.358 Y34.756 E2.7639
G1 X130.907 Y34.797 E.01692
G1 X131.427 Y34.912 E.01634
G1 X131.923 Y35.103 E.01633
G1 X132.385 Y35.365 E.01633
G1 X132.816 Y35.704 E.01685
G1 X133.179 Y36.092 E.01633
G1 X133.481 Y36.53 E.01633
G1 X133.715 Y37.007 E.01633
G1 X133.879 Y37.53 E.01683
G1 X133.961 Y38.041 E.01591
G1 X133.975 Y38.353 E.00961
G1 X133.976 Y43.295 E.15183
G1 X133.935 Y43.852 E.01716
G1 X133.815 Y44.386 E.01683
G1 X133.615 Y44.897 E.01685
G1 X133.357 Y45.343 E.01584
G1 X133.039 Y45.748 E.01582
G1 X132.627 Y46.134 E.01735
G1 X132.188 Y46.434 E.01632
G1 X131.725 Y46.659 E.01584
G1 X131.234 Y46.816 E.01583
G1 X130.675 Y46.906 E.0174
G1 X129.506 Y46.92 E.03593
G1 X129.281 Y46.957 E.00703
G1 X129.112 Y47.016 E.00548
G1 X128.887 Y47.158 E.00819
G1 X128.767 Y47.285 E.00536
G1 X128.622 Y47.546 E.00917
G1 X128.564 Y47.743 E.00631
G1 X126.838 Y59.451 E.36365
G1 X126.635 Y60.63 E.03677
G1 X126.462 Y61.981 E.04186
G1 X126.091 Y64.212 E.06949
G1 X125.955 Y65.246 E.03204
G1 X124.264 Y76.387 E.34624
G1 X124.158 Y77.335 E.02933
G1 X123.992 Y78.287 E.0297
G1 X114.804 Y139.706 E1.90822
G1 X114.351 Y142.718 E.09358
G1 X114.195 Y143.609 E.02779
G1 X114.166 Y143.956 E.01073
G1 X114.043 Y144.774 E.02539
G1 X113.741 Y146.486 E.05343
G1 X111.686 Y160.486 E.4348
G1 X105.572 Y200.923 E1.25663
G1 X104.517 Y208.01 E.22016
G1 X104.134 Y210.776 E.08581
G1 X103.961 Y211.671 E.028
G1 X102.981 Y218.37 E.20804
G1 X101.373 Y229 E.33036
G1 X100.699 Y233.728 E.14673
G1 X100.601 Y234.365 E.01982
G1 X100.506 Y234.797 E.01357
G1 X100.415 Y235.63 E.02575
G1 X99.815 Y239.338 E.11542
G1 X99.773 Y239.824 E.015
G1 X99.615 Y240.962 E.0353
G1 X99.354 Y242.695 E.05383
G1 X99.242 Y243.275 E.01815
G1 X99.159 Y243.961 E.02124
G1 X99.025 Y244.481 E.01649
G1 X98.811 Y244.985 E.01683
G1 X98.532 Y245.437 E.01633
G1 X98.178 Y245.855 E.01685
G1 X97.777 Y246.204 E.01633
G1 X97.328 Y246.49 E.01633
G1 X96.843 Y246.706 E.01633
G1 X96.339 Y246.845 E.01605
G1 X95.598 Y246.919 E.02289
G1 X75.196 Y246.92 E.6269
G1 X74.639 Y246.879 E.01718
G1 X74.119 Y246.764 E.01634
G1 X73.623 Y246.573 E.01633
G1 X73.161 Y246.311 E.01632
G1 X72.719 Y245.961 E.01735
G1 X72.357 Y245.572 E.01632
G1 X72.057 Y245.133 E.01633
G1 X71.825 Y244.655 E.01633
G1 X71.668 Y244.15 E.01625
G1 X71.067 Y240.245 E.12141
G1 X70.971 Y239.336 E.02808
G1 X70.545 Y236.773 E.07982
G1 X70.358 Y235.538 E.03839
G1 X70.281 Y234.802 E.02275
G1 X70.186 Y234.366 E.01371
G1 X70.088 Y233.728 E.01983
G1 X69.414 Y229 E.14673
G1 X67.806 Y218.37 E.33036
G1 X66.826 Y211.671 E.20804
G1 X66.652 Y210.776 E.028
G1 X66.27 Y208.01 E.08581
G1 X65.215 Y200.925 E.2201
G1 X59.104 Y160.513 E1.25586
G1 X57.046 Y146.486 E.43563
G1 X56.744 Y144.775 E.05339
G1 X56.621 Y143.956 E.02544
G1 X56.59 Y143.603 E.01088
G1 X56.454 Y142.845 E.02367
G1 X46.795 Y78.288 E2.00575
G1 X46.629 Y77.335 E.0297
G1 X46.523 Y76.387 E.02933
G1 X44.832 Y65.246 E.34624
G1 X44.696 Y64.212 E.03204
G1 X44.325 Y61.981 E.06949
G1 X44.152 Y60.63 E.04186
G1 X43.949 Y59.451 E.03677
G1 X42.224 Y47.748 E.36349
G1 X42.092 Y47.402 E.01137
G1 X42.015 Y47.283 E.00435
G1 X41.907 Y47.164 E.00496
G1 X41.759 Y47.058 E.00556
G1 X41.583 Y46.982 E.00591
G1 X41.267 Y46.92 E.00989
G1 X40.429 Y46.92 E.02576
G1 X39.847 Y46.875 E.01793
G1 X39.33 Y46.755 E.01633
G1 X38.835 Y46.559 E.01633
G1 X38.375 Y46.293 E.01633
G1 X37.96 Y45.961 E.01633
G1 X37.598 Y45.572 E.01633
G1 X37.298 Y45.133 E.01633
G1 X37.072 Y44.67 E.01584
G1 X36.915 Y44.179 E.01583
G1 X36.823 Y43.609 E.01772
G1 X36.811 Y38.381 E.16064
G1 X36.852 Y37.824 E.01717
G1 X36.967 Y37.305 E.01634
G1 X37.158 Y36.809 E.01633
G1 X37.43 Y36.332 E.01685
G1 X37.72 Y35.966 E.01437
G1 X38.016 Y36.201 F9000
G1 F900
G1 X38.044 Y36.166 E.00137
G1 X38.404 Y35.833 E.01507
G1 X38.796 Y35.566 E.01457
G1 X39.224 Y35.36 E.01461
G1 X39.679 Y35.219 E.01463
G1 X40.129 Y35.147 E.01399
G1 X40.415 Y35.133 E.0088
G1 X130.34 Y35.133 E2.76316
G1 X130.844 Y35.17 E.01553
G1 X131.309 Y35.272 E.01463
G1 X131.753 Y35.442 E.01461
G1 X132.167 Y35.675 E.01459
G1 X132.554 Y35.978 E.01509
G1 X132.879 Y36.324 E.0146
G1 X133.159 Y36.729 E.01512
G1 X133.366 Y37.156 E.01459
G1 X133.513 Y37.625 E.0151
G1 X133.584 Y38.073 E.01396
G1 X133.598 Y38.36 E.00881
G1 X133.599 Y43.277 E.15109
G1 X133.559 Y43.804 E.01626
G1 X133.45 Y44.283 E.01509
G1 X133.277 Y44.725 E.01457
G1 X133.048 Y45.124 E.01415
G1 X132.754 Y45.498 E.01462
G1 X132.383 Y45.844 E.01558
G1 X131.991 Y46.11 E.01457
G1 X131.592 Y46.305 E.01364
G1 X131.155 Y46.446 E.0141
G1 X130.635 Y46.529 E.01617
G1 X129.437 Y46.549 E.03682
G1 X129.228 Y46.584 E.00652
G1 X128.996 Y46.658 E.00748
G1 X128.694 Y46.835 E.01076
G1 X128.5 Y47.02 E.00824
G1 X128.297 Y47.354 E.01201
G1 X128.19 Y47.697 E.01104
G1 X126.466 Y59.39 E.36319
G1 X126.261 Y60.585 E.03724
G1 X126.088 Y61.929 E.04163
G1 X125.72 Y64.149 E.06915
G1 X125.581 Y65.194 E.0324
G1 X123.892 Y76.328 E.34603
G1 X123.784 Y77.285 E.0296
G1 X123.619 Y78.233 E.02956
G1 X114.431 Y139.65 E1.90817
G1 X113.979 Y142.656 E.09341
G1 X113.825 Y143.539 E.02755
G1 X113.79 Y143.916 E.01162
G1 X113.671 Y144.711 E.02472
G1 X113.368 Y146.433 E.05371
G1 X111.313 Y160.43 E.43471
G1 X105.199 Y200.867 E1.25662
G1 X104.144 Y207.954 E.22016
M73 P0 R296
M73 P0 R296
G1 X103.763 Y210.711 E.08554
G1 X103.588 Y211.619 E.02839
G1 X102.608 Y218.315 E.20794
G1 X101 Y228.944 E.33031
G1 X100.326 Y233.673 E.1468
G1 X100.231 Y234.293 E.01926
G1 X100.131 Y234.761 E.01473
G1 X100.041 Y235.582 E.02537
G1 X99.444 Y239.274 E.11491
G1 X99.398 Y239.785 E.01577
G1 X99.241 Y240.909 E.03486
G1 X98.982 Y242.629 E.05344
G1 X98.867 Y243.233 E.0189
G1 X98.788 Y243.884 E.02014
G1 X98.669 Y244.351 E.01482
G1 X98.479 Y244.803 E.01508
G1 X98.231 Y245.208 E.01457
G1 X97.914 Y245.583 E.01509
G1 X97.543 Y245.906 E.01511
G1 X97.142 Y246.16 E.01461
G1 X96.707 Y246.352 E.01459
G1 X96.26 Y246.474 E.01423
G1 X95.585 Y246.542 E.02086
G1 X75.214 Y246.543 E.62594
G1 X74.702 Y246.506 E.01578
G1 X74.237 Y246.404 E.01463
G1 X73.793 Y246.234 E.01461
G1 X73.38 Y246.002 E.01456
G1 X72.969 Y245.677 E.0161
G1 X72.648 Y245.329 E.01456
G1 X72.38 Y244.936 E.01461
G1 X72.174 Y244.508 E.0146
G1 X72.035 Y244.056 E.01451
G1 X71.441 Y240.199 E.11992
G1 X71.343 Y239.271 E.02869
G1 X70.917 Y236.713 E.07966
G1 X70.733 Y235.492 E.03794
G1 X70.657 Y234.768 E.02238
G1 X70.556 Y234.293 E.01491
G1 X70.461 Y233.673 E.01928
G1 X69.787 Y228.944 E.1468
G1 X68.179 Y218.315 E.33031
G1 X67.199 Y211.619 E.20794
G1 X67.024 Y210.711 E.02839
G1 X66.643 Y207.954 E.08554
G1 X65.588 Y200.868 E.22011
G1 X59.477 Y160.457 E1.25583
G1 X57.419 Y146.433 E.43555
G1 X57.116 Y144.713 E.05367
G1 X56.996 Y143.915 E.02479
G1 X56.961 Y143.532 E.01183
G1 X56.826 Y142.782 E.02341
G1 X47.168 Y78.233 E2.00549
G1 X47.003 Y77.285 E.02956
G1 X46.895 Y76.328 E.0296
G1 X45.206 Y65.194 E.34603
G1 X45.067 Y64.149 E.0324
G1 X44.699 Y61.929 E.06915
G1 X44.526 Y60.585 E.04163
G1 X44.321 Y59.39 E.03724
