; HEADER_BLOCK_START
; generated by OrcaSlicer 2.2.0 on 2025-01-31 at 17:35:58
; total layer number: 60
; filament_density: 1.24
; filament_diameter: 1.75
; max_z_height: 12.00
; HEADER_BLOCK_END

; THUMBNAIL_BLOCK_START

;
; THUMBNAIL_BLOCK_END

; THUMBNAIL_BLOCK_START

;
; THUMBNAIL_BLOCK_END

; external perimeters extrusion width = 0.45mm
; perimeters extrusion width = 0.45mm
; infill extrusion width = 0.45mm
; solid infill extrusion width = 0.45mm
; top infill extrusion width = 0.40mm
; support material extrusion width = 0.38mm
; first layer extrusion width = 0.42mm

; EXECUTABLE_BLOCK_START
M73 P0 R75
;TYPE:Custom
G90 ; use absolute coordinates
M83 ; extruder relative mode
M140 S70 ; set bed temp
M190 S70 ; wait for bed temp
G28 ; home all
BED_MESH_CALIBRATE
M104 S205 ; set extruder temp
M109 S205 ; wait for extruder temp
G1 Z2 F240
G1 X2 Y10 F3000
G1 Z0.28 F240
G92 E0
G1 Y190 E15 F1500 ; intro line
G1 X2.3 F5000
M73 P0 R74
G92 E0
M73 P0 R74
G1 Y10 E15 F1200 ; intro line
G92 E0
G90
G21
M83 ; use relative distances for extrusion
; filament start gcode
SET_PRESSURE_ADVANCE ADVANCE=0.42; Override pressure advance value
M106 S0
;LAYER_CHANGE
;Z:0.2
;HEIGHT:0.2
;BEFORE_LAYER_CHANGE
;0.2
G92 E0

G1 E-5 F2400
;_SET_FAN_SPEED_CHANGING_LAYER
; printing object suport_ultrassonic.stl id:4276657121268448510 copy 0
G1 Z.45 F9000
G1 X74.652 Y53.354
G1 Z.45
G1 Z.2
G1 E5 F2400
;TYPE:Support
;WIDTH:0.42
G1 F900
G1 X75.301 Y53.632 E.0217
G1 X75.876 Y54.041 E.02168
G1 X76.351 Y54.562 E.02168
G1 X76.489 Y54.8 E.00844
G1 X70.856 Y54.8 E.17307
G1 X70.92 Y54.689 E.00392
G1 X71.35 Y54.166 E.02082
G1 X71.607 Y53.944 E.01042
G1 X71.934 Y53.705 E.01245
G1 X72.561 Y53.401 E.02141
G1 X73.25 Y53.235 E.02179
G1 X73.958 Y53.219 E.02175
G1 X74.596 Y53.343 E.01998
G1 X75.637 Y54.63 F9000
G1 F900
G1 X75.637 Y54.287 E.01054
G1 X75.218 Y53.989 E.0158
G1 X75.218 Y54.461 E.01449
G1 X74.799 Y54.461 E.01287
G1 X74.799 Y53.786 E.02074
G1 X74.552 Y53.68 E.00827
G1 X74.38 Y53.646 E.00537
G1 X74.38 Y54.461 E.02502
G1 X73.961 Y54.461 E.01287
G1 X73.961 Y53.565 E.02751
G1 X73.929 Y53.559 E.00099
G1 X73.542 Y53.568 E.0119
G1 X73.542 Y54.461 E.02744
G1 X73.123 Y54.461 E.01287
G1 X73.123 Y53.615 E.02599
G1 X72.704 Y53.716 E.01324
G1 X72.704 Y54.461 E.02289
G1 X72.285 Y54.461 E.01287
G1 X72.285 Y53.912 E.01686
G1 X72.11 Y53.997 E.00599
G1 X71.866 Y54.175 E.00927
G1 X71.866 Y54.63 E.01399
G1 E-3.5 F2400
;WIPE_START
G1 F900
G1 X71.866 Y54.175 E-.68272
G1 X72.11 Y53.997 E-.45277
G1 X72.285 Y53.912 E-.29222
G1 X72.285 Y53.96 E-.07229
;WIPE_END
G1 Z.45 F9000
G1 X73.084 Y60.61 Z.45
G1 X75.343 Y79.41
G1 X75.495 Y80.678
G1 Z.2
G1 E5 F2400
G1 F900
G1 X75.881 Y81.24 E.02097
G1 X76.024 Y81.607 E.01211
G1 X76.127 Y81.887 E.00916
G1 X76.212 Y82.562 E.02091
G1 X76.136 Y83.242 E.02103
G1 X75.901 Y83.885 E.02102
G1 X75.525 Y84.449 E.02084
G1 X75.265 Y84.696 E.01101
G1 X75.014 Y84.92 E.01034
G1 X74.421 Y85.25 E.02083
G1 X73.762 Y85.433 E.02103
G1 X73.077 Y85.454 E.02106
G1 X72.419 Y85.317 E.02064
G1 X72.071 Y85.166 E.01166
G1 X71.771 Y85.007 E.01042
G1 X71.265 Y84.594 E.02005
G1 X71.03 Y84.312 E.0113
G1 X70.839 Y84.031 E.01044
G1 X70.688 Y83.728 E.01039
G1 X70.567 Y83.398 E.0108
G1 X70.493 Y83.082 E.00999
G1 X70.452 Y82.719 E.01122
G1 X70.453 Y82.408 E.00956
G1 X70.503 Y82.031 E.01166
G1 X70.575 Y81.729 E.00957
G1 X70.834 Y81.132 E.01998
G1 X71.233 Y80.6 E.02045
G1 X71.267 Y80.57 E.00138
G1 X75.375 Y80.57 E.12623
G1 X75.453 Y80.64 E.00321
G1 X75.637 Y83.975 F9000
G1 F900
G1 X75.637 Y81.548 E.07458
G1 X75.579 Y81.4 E.00488
G1 X75.243 Y80.909 E.01828
G1 X75.218 Y80.909 E.00076
G1 X75.218 Y84.272 E.10334
G1 X74.799 Y84.652 E.01736
G1 X74.799 Y80.909 E.11499
G1 X74.38 Y80.909 E.01287
G1 X74.38 Y84.885 E.12215
G1 X74.292 Y84.934 E.0031
G1 X73.961 Y85.025 E.01055
G1 X73.961 Y80.909 E.12647
G1 X73.542 Y80.909 E.01287
G1 X73.542 Y85.1 E.12877
G1 X73.123 Y85.113 E.01288
G1 X73.123 Y80.909 E.12918
G1 X72.704 Y80.909 E.01287
G1 X72.704 Y85.03 E.12661
G1 X72.522 Y84.992 E.00571
G1 X72.285 Y84.889 E.00794
G1 X72.285 Y80.909 E.12228
G1 X71.866 Y80.909 E.01287
G1 X71.866 Y84.646 E.11483
G1 X71.505 Y84.352 E.01431
G1 X71.447 Y84.282 E.00279
G1 X71.447 Y80.909 E.10364
G1 X71.425 Y80.909 E.00068
G1 X71.129 Y81.304 E.01514
G1 X71.028 Y81.537 E.00782
G1 X71.028 Y84.007 E.0759
G1 E-3.5 F2400
;WIPE_START
G1 F900
G1 X71.028 Y83.007 E-1.5
;WIPE_END
G1 Z.45 F9000
G1 X67.934 Y83.163 Z.45
G1 X51.164 Y84.007
G1 Z.2
G1 E5 F2400
;TYPE:Brim
G1 F900
G1 X51.164 Y60.017 E.73715
G1 X51.212 Y59.368 E.02001
G1 X51.355 Y58.74 E.01979
G1 X51.589 Y58.139 E.01979
G1 X51.909 Y57.581 E.01979
G1 X52.309 Y57.075 E.01979
G1 X52.779 Y56.635 E.01979
G1 X53.309 Y56.269 E.01979
G1 X53.887 Y55.985 E.01979
G1 X54.501 Y55.791 E.01979
G1 X55.14 Y55.689 E.01989
G1 X55.504 Y55.674 E.0112
G1 X90.739 Y55.674 E1.08265
G1 X91.388 Y55.722 E.02001
G1 X92.016 Y55.865 E.01979
G1 X92.616 Y56.098 E.01979
G1 X93.175 Y56.419 E.01979
G1 X93.68 Y56.818 E.01979
G1 X94.121 Y57.288 E.01979
G1 X94.487 Y57.818 E.01979
G1 X94.77 Y58.397 E.01979
G1 X94.965 Y59.011 E.01979
G1 X95.067 Y59.65 E.01989
G1 X95.082 Y60.014 E.0112
G1 X95.082 Y85.485 E.78266
G1 X95.13 Y85.611 E.00415
G1 X95.269 Y85.674 E.00467
G1 X95.836 Y85.679 E.01744
G1 X96.459 Y85.731 E.0192
G1 X96.964 Y85.818 E.01574
G1 X97.554 Y85.977 E.01878
G1 X97.947 Y86.116 E.0128
G1 X98.416 Y86.325 E.01578
G1 X98.959 Y86.625 E.01907
G1 X99.56 Y87.046 E.02252
G1 X99.946 Y87.379 E.01568
G1 X100.38 Y87.827 E.01918
G1 X100.653 Y88.159 E.0132
G1 X101.001 Y88.66 E.01873
G1 X101.254 Y89.108 E.0158
G1 X101.517 Y89.686 E.01952
G1 X101.712 Y90.262 E.01871
G1 X101.854 Y90.868 E.01911
G1 X101.936 Y91.484 E.01909
G1 X101.959 Y92.015 E.01633
G1 X101.957 Y112.104 E.61729
G1 X101.936 Y112.536 E.01328
G1 X101.873 Y113.047 E.01584
G1 X101.795 Y113.444 E.01242
G1 X101.657 Y113.938 E.01575
G1 X101.438 Y114.522 E.01918
G1 X101.254 Y114.911 E.01323
G1 X101.001 Y115.36 E.01583
G1 X100.776 Y115.696 E.01243
G1 X100.459 Y116.101 E.01579
G1 X100.171 Y116.42 E.0132
G1 X99.798 Y116.776 E.01585
G1 X99.321 Y117.153 E.01869
G1 X98.799 Y117.491 E.01911
G1 X98.244 Y117.777 E.01919
G1 X97.847 Y117.941 E.01319
G1 X97.36 Y118.103 E.01576
G1 X96.648 Y118.261 E.02242
G1 X95.837 Y118.341 E.02503
G1 X50.409 Y118.341 E1.39588
G1 X49.597 Y118.261 E.02506
G1 X48.978 Y118.129 E.01947
G1 X48.582 Y118.007 E.01272
G1 X47.826 Y117.694 E.02515
G1 X47.46 Y117.5 E.01272
G1 X46.926 Y117.153 E.01957
G1 X46.439 Y116.766 E.01911
G1 X45.992 Y116.333 E.01913
G1 X45.657 Y115.944 E.01578
G1 X45.472 Y115.699 E.00942
G1 X45.141 Y115.185 E.01879
G1 X44.857 Y114.633 E.01908
G1 X44.589 Y113.938 E.02289
G1 X44.43 Y113.339 E.01903
G1 X44.329 Y112.726 E.01909
G1 X44.287 Y112.005 E.02221
G1 X44.287 Y92.014 E.61424
G1 X44.31 Y91.483 E.01635
G1 X44.373 Y90.973 E.01579
G1 X44.502 Y90.379 E.01869
G1 X44.691 Y89.787 E.01907
G1 X44.993 Y89.107 E.02288
G1 X45.246 Y88.66 E.01577
G1 X45.592 Y88.161 E.01866
G1 X46.079 Y87.596 E.02291
G1 X46.448 Y87.244 E.01567
G1 X46.927 Y86.865 E.01878
G1 X47.284 Y86.627 E.01317
G1 X47.829 Y86.325 E.01915
G1 X48.388 Y86.082 E.01873
G1 X48.874 Y85.922 E.01571
G1 X49.6 Y85.759 E.02288
G1 X50.218 Y85.689 E.01909
G1 X50.979 Y85.674 E.02341
G1 X51.104 Y85.623 E.00415
G1 X51.164 Y85.485 E.00461
G1 X51.164 Y84.047 E.04418
G1 X51.541 Y84.047 F9000
G1 F900
G1 X51.541 Y60.035 E.73782
G1 X51.586 Y59.432 E.01858
G1 X51.715 Y58.859 E.01806
G1 X51.934 Y58.295 E.01858
G1 X52.228 Y57.786 E.01806
G1 X52.582 Y57.338 E.01755
G1 X53.01 Y56.935 E.01806
G1 X53.507 Y56.591 E.01858
G1 X54.036 Y56.334 E.01806
G1 X54.58 Y56.161 E.01755
G1 X55.185 Y56.064 E.01881
G1 X55.515 Y56.051 E.01015
G1 X90.729 Y56.051 E1.08203
G1 X91.34 Y56.098 E.01884
M73 P1 R74
M73 P1 R74
G1 X91.913 Y56.229 E.01806
G1 X92.46 Y56.444 E.01806
G1 X92.956 Y56.728 E.01755
G1 X93.418 Y57.091 E.01806
G1 X93.821 Y57.52 E.01806
G1 X94.164 Y58.017 E.01858
G1 X94.422 Y58.546 E.01806
G1 X94.594 Y59.09 E.01755
G1 X94.69 Y59.681 E.0184
G1 X94.705 Y60.024 E.01055
G1 X94.705 Y85.475 E.78202
G1 X94.734 Y85.63 E.00485
G1 X94.774 Y85.734 E.00343
G1 X94.877 Y85.887 E.00568
G1 X95.103 Y86.013 E.00794
G1 X95.277 Y86.051 E.00548
G1 X95.823 Y86.056 E.01678
G1 X96.416 Y86.106 E.01829
G1 X96.888 Y86.188 E.01471
G1 X97.438 Y86.336 E.01751
G1 X97.803 Y86.465 E.0119
G1 X98.252 Y86.665 E.01511
G1 X98.754 Y86.943 E.01762
G1 X99.332 Y87.347 E.02167
G1 X99.69 Y87.657 E.01455
G1 X100.102 Y88.082 E.01818
G1 X100.354 Y88.39 E.01224
G1 X100.684 Y88.865 E.01775
G1 X100.919 Y89.283 E.01475
G1 X101.168 Y89.83 E.01845
G1 X101.35 Y90.371 E.01755
G1 X101.483 Y90.941 E.01799
G1 X101.559 Y91.512 E.01769
G1 X101.582 Y92.026 E.0158
G1 X101.58 Y112.098 E.61675
G1 X101.559 Y112.508 E.01262
G1 X101.5 Y112.992 E.01499
G1 X101.426 Y113.36 E.01155
G1 X101.297 Y113.825 E.01483
G1 X101.092 Y114.371 E.01789
G1 X100.921 Y114.734 E.01235
G1 X100.682 Y115.159 E.01497
G1 X100.473 Y115.472 E.01156
G1 X100.168 Y115.861 E.0152
G1 X99.898 Y116.159 E.01236
G1 X99.554 Y116.487 E.01461
G1 X99.096 Y116.849 E.01792
G1 X98.604 Y117.167 E.01799
G1 X98.08 Y117.437 E.01811
G1 X97.711 Y117.589 E.01227
G1 X97.265 Y117.737 E.01444
G1 X96.582 Y117.889 E.02152
G1 X95.813 Y117.964 E.02373
G1 X50.433 Y117.964 E1.3944
G1 X49.649 Y117.886 E.0242
G1 X49.078 Y117.764 E.01796
G1 X48.715 Y117.653 E.01165
G1 X47.982 Y117.35 E.02438
G1 X47.647 Y117.172 E.01165
G1 X47.151 Y116.85 E.01818
G1 X46.685 Y116.479 E.01831
G1 X46.262 Y116.068 E.01812
G1 X45.787 Y115.491 E.02295
G1 X45.471 Y115.001 E.01792
G1 X45.199 Y114.472 E.01825
G1 X44.95 Y113.827 E.02127
G1 X44.798 Y113.255 E.01819
G1 X44.704 Y112.679 E.01793
G1 X44.664 Y111.99 E.0212
G1 X44.664 Y92.025 E.61347
G1 X44.687 Y91.51 E.01585
G1 X44.746 Y91.031 E.01483
G1 X44.869 Y90.471 E.0176
G1 X45.047 Y89.916 E.01791
G1 X45.333 Y89.271 E.02167
G1 X45.568 Y88.856 E.01466
G1 X45.894 Y88.388 E.01754
G1 X46.349 Y87.861 E.02139
G1 X46.7 Y87.526 E.0149
G1 X47.146 Y87.173 E.01747
G1 X47.484 Y86.947 E.01251
G1 X47.991 Y86.666 E.01781
G1 X48.518 Y86.436 E.01764
G1 X48.98 Y86.285 E.01494
G1 X49.669 Y86.13 E.02171
G1 X50.237 Y86.066 E.01757
G1 X50.976 Y86.051 E.02271
G1 X51.131 Y86.019 E.00485
G1 X51.234 Y85.977 E.00343
G1 X51.382 Y85.873 E.00554
G1 X51.506 Y85.641 E.0081
G1 X51.541 Y85.473 E.00526
G1 X51.541 Y84.087 E.04259
G1 X51.918 Y84.087 F9000
G1 F900
G1 X51.918 Y60.053 E.73849
G1 X51.959 Y59.496 E.01717
G1 X52.074 Y58.977 E.01632
G1 X52.272 Y58.467 E.01682
G1 X52.546 Y57.991 E.01685
G1 X52.866 Y57.588 E.01584
G1 X53.241 Y57.235 E.01582
G1 X53.706 Y56.914 E.01735
G1 X54.169 Y56.689 E.01582
G1 X54.66 Y56.532 E.01583
G1 X55.216 Y56.441 E.01732
G1 X55.52 Y56.428 E.00936
G1 X90.71 Y56.428 E1.08129
G1 X91.275 Y56.471 E.01741
G1 X91.81 Y56.593 E.01685
G1 X92.289 Y56.782 E.01584
G1 X92.737 Y57.037 E.01584
G1 X93.156 Y57.365 E.01634
G1 X93.531 Y57.764 E.01684
G1 X93.842 Y58.216 E.01682
G1 X94.067 Y58.678 E.01582
G1 X94.224 Y59.17 E.01584
G1 X94.313 Y59.713 E.01693
G1 X94.328 Y60.035 E.0099
G1 X94.328 Y85.464 E.78137
G1 X94.385 Y85.771 E.00959
G1 X94.466 Y85.953 E.00611
G1 X94.557 Y86.087 E.00497
G1 X94.706 Y86.224 E.00623
G1 X94.913 Y86.339 E.00727
G1 X95.028 Y86.382 E.00376
G1 X95.283 Y86.428 E.00796
G1 X95.81 Y86.434 E.01619
G1 X96.373 Y86.481 E.01738
G1 X96.812 Y86.558 E.01367
G1 X97.33 Y86.698 E.01651
G1 X97.668 Y86.817 E.011
G1 X98.088 Y87.005 E.01415
G1 X98.559 Y87.266 E.01654
G1 X99.095 Y87.642 E.02011
G1 X99.434 Y87.935 E.01378
G1 X99.823 Y88.337 E.01719
G1 X100.056 Y88.621 E.01129
G1 X100.366 Y89.07 E.01677
G1 X100.585 Y89.459 E.0137
G1 X100.818 Y89.974 E.01738
M73 P1 R73
M73 P1 R73
G1 X100.988 Y90.48 E.0164
G1 X101.113 Y91.015 E.01688
G1 X101.183 Y91.541 E.01631
G1 X101.205 Y92.037 E.01526
G1 X101.203 Y112.091 E.61621
G1 X101.183 Y112.479 E.01195
G1 X101.127 Y112.936 E.01414
G1 X101.058 Y113.277 E.01068
G1 X100.936 Y113.713 E.01392
G1 X100.746 Y114.22 E.01662
G1 X100.587 Y114.557 E.01147
G1 X100.362 Y114.958 E.01412
G1 X100.169 Y115.247 E.01068
G1 X99.877 Y115.621 E.01459
G1 X99.625 Y115.899 E.01152
G1 X99.31 Y116.199 E.01337
G1 X98.872 Y116.545 E.01715
G1 X98.411 Y116.843 E.01687
G1 X97.918 Y117.096 E.01703
G1 X97.576 Y117.237 E.01136
G1 X97.17 Y117.371 E.01313
G1 X96.516 Y117.516 E.02061
G1 X95.789 Y117.587 E.02242
G1 X50.457 Y117.587 E1.39292
G1 X49.701 Y117.512 E.02334
G1 X49.177 Y117.4 E.01646
G1 X48.848 Y117.3 E.01058
G1 X48.138 Y117.006 E.0236
G1 X47.834 Y116.844 E.01058
G1 X47.367 Y116.54 E.01712
G1 X46.93 Y116.192 E.01717
G1 X46.536 Y115.807 E.01692
G1 X46.097 Y115.273 E.02124
G1 X45.801 Y114.816 E.01672
G1 X45.542 Y114.312 E.01742
G1 X45.312 Y113.716 E.01965
G1 X45.168 Y113.181 E.01701
G1 X45.079 Y112.632 E.0171
G1 X45.041 Y111.976 E.02018
G1 X45.041 Y92.036 E.61268
G1 X45.064 Y91.537 E.01535
G1 X45.119 Y91.089 E.01387
G1 X45.235 Y90.564 E.01651
G1 X45.402 Y90.045 E.01676
G1 X45.673 Y89.437 E.02047
G1 X45.891 Y89.053 E.01355
G1 X46.196 Y88.615 E.01641
G1 X46.619 Y88.125 E.01988
G1 X46.952 Y87.808 E.01413
G1 X47.364 Y87.481 E.01617
G1 X47.685 Y87.267 E.01185
G1 X48.163 Y87.002 E.0168
G1 X48.657 Y86.787 E.01655
G1 X49.085 Y86.647 E.01384
G1 X49.726 Y86.504 E.02017
G1 X50.268 Y86.442 E.01676
G1 X50.975 Y86.428 E.02175
G1 X51.2 Y86.389 E.00702
G1 X51.368 Y86.329 E.00549
G1 X51.589 Y86.188 E.00805
G1 X51.72 Y86.04 E.00607
G1 X51.876 Y85.712 E.01116
G1 X51.918 Y85.464 E.00772
G1 X51.918 Y84.127 E.04107
G1 X52.295 Y84.127 F9000
G1 F900
G1 X52.295 Y60.071 E.73917
G1 X52.333 Y59.559 E.01578
G1 X52.439 Y59.079 E.01512
G1 X52.618 Y58.622 E.01506
G1 X52.864 Y58.197 E.01509
G1 X53.14 Y57.85 E.01363
G1 X53.473 Y57.535 E.01409
G1 X53.904 Y57.237 E.01612
G1 X54.317 Y57.037 E.01409
G1 X54.74 Y56.902 E.01363
G1 X55.248 Y56.818 E.01583
G1 X55.526 Y56.805 E.00855
G1 X90.692 Y56.805 E1.08054
G1 X91.21 Y56.844 E.01597
G1 X91.706 Y56.958 E.01563
G1 X92.133 Y57.127 E.01413
G1 X92.519 Y57.347 E.01365
G1 X92.894 Y57.639 E.0146
G1 X93.231 Y57.995 E.01507
G1 X93.519 Y58.414 E.01559
G1 X93.719 Y58.827 E.01411
G1 X93.854 Y59.25 E.01365
G1 X93.936 Y59.746 E.01545
G1 X93.951 Y60.046 E.00924
G1 X93.951 Y85.455 E.78074
G1 X94.012 Y85.83 E.01168
G1 X94.119 Y86.1 E.00891
G1 X94.31 Y86.371 E.01019
G1 X94.533 Y86.559 E.00895
G1 X94.785 Y86.693 E.00878
G1 X94.969 Y86.754 E.00595
G1 X95.207 Y86.797 E.00744
G1 X95.789 Y86.81 E.01789
G1 X96.33 Y86.857 E.01668
G1 X96.735 Y86.928 E.01264
G1 X97.214 Y87.057 E.01525
G1 X97.532 Y87.17 E.01037
G1 X97.924 Y87.345 E.0132
G1 X98.364 Y87.59 E.01546
G1 X98.867 Y87.943 E.0189
G1 X99.178 Y88.213 E.01264
G1 X99.544 Y88.592 E.01618
G1 X99.757 Y88.852 E.01033
G1 X100.049 Y89.275 E.01579
G1 X100.25 Y89.634 E.01264
G1 X100.469 Y90.118 E.01631
G1 X100.626 Y90.588 E.01524
G1 X100.742 Y91.088 E.01577
G1 X100.806 Y91.57 E.01493
G1 X100.828 Y92.048 E.01472
G1 X100.825 Y112.084 E.61566
G1 X100.807 Y112.451 E.01127
G1 X100.753 Y112.88 E.01329
G1 X100.69 Y113.193 E.0098
G1 X100.576 Y113.6 E.013
G1 X100.4 Y114.069 E.01537
G1 X100.254 Y114.381 E.01059
G1 X100.042 Y114.757 E.01326
G1 X99.861 Y115.029 E.01007
G1 X99.586 Y115.381 E.01372
G1 X99.352 Y115.638 E.01068
G1 X99.066 Y115.911 E.01213
G1 X98.657 Y116.235 E.01604
G1 X98.217 Y116.518 E.01608
G1 X97.755 Y116.755 E.01596
G1 X97.441 Y116.884 E.01044
G1 X97.076 Y117.006 E.01182
G1 X96.45 Y117.144 E.0197
G1 X95.765 Y117.21 E.02112
G1 X50.481 Y117.21 E1.39145
G1 X49.753 Y117.137 E.02249
G1 X49.277 Y117.036 E.01498
G1 X48.981 Y116.946 E.00951
G1 X48.295 Y116.662 E.02282
G1 X48.022 Y116.516 E.0095
G1 X47.583 Y116.23 E.01608
G1 X47.176 Y115.905 E.01603
G1 X46.81 Y115.547 E.01573
G1 X46.406 Y115.055 E.01955
G1 X46.131 Y114.632 E.01551
G1 X45.884 Y114.152 E.01658
G1 X45.673 Y113.604 E.01804
G1 X45.537 Y113.096 E.01617
G1 X45.454 Y112.584 E.01593
G1 X45.418 Y111.961 E.01917
G1 X45.418 Y92.047 E.6119
G1 X45.44 Y91.565 E.01485
G1 X45.492 Y91.148 E.01291
G1 X45.601 Y90.658 E.01543
G1 X45.757 Y90.174 E.0156
G1 X46.013 Y89.602 E.01927
G1 X46.213 Y89.25 E.01244
G1 X46.498 Y88.842 E.01529
G1 X46.889 Y88.389 E.01839
G1 X47.204 Y88.089 E.01336
G1 X47.583 Y87.789 E.01486
G1 X47.877 Y87.592 E.01089
G1 X48.326 Y87.344 E.01575
G1 X48.787 Y87.142 E.01546
G1 X49.18 Y87.013 E.01273
