; HEADER_BLOCK_START
; generated by OrcaSlicer 2.3.1-alpha on 2025-08-19 at 14:02:17
; total layer number: 575
; filament_density: 1.24
; filament_diameter: 1.75
; max_z_height: 115.00
; HEADER_BLOCK_END

; THUMBNAIL_BLOCK_START

;
; THUMBNAIL_BLOCK_END

; THUMBNAIL_BLOCK_START

;
; THUMBNAIL_BLOCK_END

; external perimeters extrusion width = 0.45mm
; perimeters extrusion width = 0.45mm
; infill extrusion width = 0.45mm
; solid infill extrusion width = 0.45mm
; top infill extrusion width = 0.40mm
; first layer extrusion width = 0.42mm

; EXECUTABLE_BLOCK_START
M73 P0 R218
;TYPE:Custom
G90 ; use absolute coordinates
M83 ; extruder relative mode
M140 S70 ; set bed temp
G28 ; home all
BED_MESH_CALIBRATE
M104 S205 ; set extruder temp
M109 S205 ; wait for extruder temp
G1 Z2 F240
G1 X2 Y10 F3000
G1 Z0.28 F240
G92 E0
G1 Y190 E15 F1500 ; intro line
G1 X2.3 F5000
G92 E0
G1 Y10 E15 F1200 ; intro line
G92 E0
G90
G21
M83 ; use relative distances for extrusion
; filament start gcode
M106 S0
;LAYER_CHANGE
;Z:0.2
;HEIGHT:0.2
;BEFORE_LAYER_CHANGE
;0.2
G92 E0

;_SET_FAN_SPEED_CHANGING_LAYER
; printing object interna_sensor.stl id:34368328302592 copy 0
G1 X102.808 Y103.065 F9000
G1 Z.2
SET_VELOCITY_LIMIT ACCEL=500 ACCEL_TO_DECEL=250
;TYPE:Brim
;WIDTH:0.42
G1 F1800
G1 X103.278 Y102.625 E.01919
G1 X103.808 Y102.259 E.01919
G1 X104.387 Y101.975 E.01919
G1 X105.001 Y101.781 E.01919
G1 X105.64 Y101.679 E.01928
G1 X106.004 Y101.664 E.01085
G1 X193.993 Y101.664 E2.62089
G1 X194.642 Y101.712 E.0194
G1 X195.271 Y101.854 E.01919
G1 X195.871 Y102.088 E.01919
G1 X196.429 Y102.409 E.01919
G1 X196.935 Y102.808 E.01919
G1 X197.375 Y103.278 E.01919
G1 X197.741 Y103.808 E.01919
G1 X198.025 Y104.387 E.01919
G1 X198.219 Y105.001 E.01919
G1 X198.321 Y105.64 E.01928
G1 X198.336 Y106.004 E.01086
G1 X198.336 Y193.993 E2.62089
G1 X198.288 Y194.642 E.0194
G1 X198.146 Y195.271 E.01919
G1 X197.912 Y195.871 E.01919
G1 X197.591 Y196.429 E.01919
G1 X197.192 Y196.935 E.01919
G1 X196.722 Y197.375 E.01919
G1 X196.192 Y197.741 E.01919
G1 X195.613 Y198.025 E.01919
G1 X194.999 Y198.219 E.01919
G1 X194.36 Y198.321 E.01928
G1 X193.996 Y198.336 E.01086
G1 X106.007 Y198.336 E2.62089
G1 X105.358 Y198.288 E.0194
G1 X104.729 Y198.146 E.01919
G1 X104.129 Y197.912 E.01919
G1 X103.571 Y197.591 E.01919
G1 X103.065 Y197.192 E.01919
G1 X102.625 Y196.722 E.01919
G1 X102.259 Y196.192 E.01919
G1 X101.975 Y195.613 E.01919
G1 X101.781 Y194.999 E.01919
G1 X101.679 Y194.36 E.01928
G1 X101.664 Y193.996 E.01085
G1 X101.664 Y106.007 E2.62089
G1 X101.712 Y105.358 E.0194
G1 X101.854 Y104.729 E.01919
G1 X102.088 Y104.129 E.01919
G1 X102.409 Y103.571 E.01919
G1 X102.783 Y103.097 E.01799
G1 X103.08 Y103.331 F9000
G1 F1800
G1 X103.093 Y103.315 E.0006
G1 X103.509 Y102.925 E.01701
G1 X103.992 Y102.59 E.01751
G1 X104.52 Y102.33 E.01751
G1 X105.096 Y102.147 E.01801
G1 X105.671 Y102.056 E.01734
G1 X106.014 Y102.041 E.01023
G1 X193.983 Y102.041 E2.62029
G1 X194.595 Y102.088 E.01826
G1 X195.168 Y102.219 E.01751
G1 X195.715 Y102.434 E.01751
G1 X196.21 Y102.718 E.01701
G1 X196.685 Y103.093 E.01801
G1 X197.075 Y103.509 E.01701
G1 X197.41 Y103.992 E.01751
G1 X197.67 Y104.52 E.01751
G1 X197.853 Y105.096 E.01801
G1 X197.944 Y105.671 E.01734
G1 X197.959 Y106.01 E.01009
G1 X197.959 Y193.975 E2.62018
G1 X197.915 Y194.578 E.01802
G1 X197.781 Y195.168 E.01801
G1 X197.566 Y195.715 E.01751
G1 X197.282 Y196.21 E.01701
G1 X196.907 Y196.685 E.01801
G1 X196.491 Y197.075 E.01701
G1 X196.008 Y197.41 E.01751
G1 X195.48 Y197.67 E.01751
G1 X194.904 Y197.853 E.01801
G1 X194.329 Y197.944 E.01734
G1 X193.986 Y197.959 E.01023
G1 X106.025 Y197.959 E2.62004
G1 X105.422 Y197.915 E.01802
G1 X104.832 Y197.781 E.01801
G1 X104.285 Y197.566 E.01751
G1 X103.79 Y197.282 E.01701
G1 X103.315 Y196.907 E.01801
G1 X102.925 Y196.491 E.01701
G1 X102.59 Y196.008 E.01751
G1 X102.33 Y195.48 E.01751
G1 X102.147 Y194.904 E.01801
G1 X102.056 Y194.329 E.01734
G1 X102.041 Y193.986 E.01023
G1 X102.041 Y106.025 E2.62004
G1 X102.085 Y105.422 E.01802
M73 P0 R217
G1 X102.219 Y104.832 E.01801
G1 X102.434 Y104.285 E.01751
G1 X102.718 Y103.79 E.01701
G1 X103.055 Y103.363 E.01621
G1 X103.352 Y103.597 F9000
G1 F1800
G1 X103.377 Y103.566 E.00121
G1 X103.754 Y103.214 E.01534
G1 X104.177 Y102.921 E.01535
G1 X104.653 Y102.685 E.01582
G1 X105.192 Y102.514 E.01682
G1 X105.703 Y102.433 E.01542
G1 X106.025 Y102.418 E.00961
G1 X193.964 Y102.418 E2.61942
G1 X194.529 Y102.461 E.01688
G1 X195.064 Y102.583 E.01633
G1 X195.544 Y102.772 E.01535
G1 X195.991 Y103.027 E.01534
G1 X196.434 Y103.377 E.01683
G1 X196.786 Y103.754 E.01534
G1 X197.079 Y104.177 E.01535
G1 X197.315 Y104.653 E.01582
G1 X197.486 Y105.192 E.01682
G1 X197.567 Y105.703 E.01542
G1 X197.582 Y106.015 E.00932
G1 X197.582 Y193.957 E2.61947
G1 X197.539 Y194.53 E.01713
G1 X197.416 Y195.064 E.01632
G1 X197.228 Y195.544 E.01534
G1 X196.973 Y195.991 E.01534
G1 X196.623 Y196.434 E.01683
G1 X196.246 Y196.786 E.01534
G1 X195.823 Y197.079 E.01535
G1 X195.347 Y197.315 E.01582
G1 X194.808 Y197.486 E.01682
G1 X194.297 Y197.567 E.01542
G1 X193.975 Y197.582 E.00961
G1 X106.043 Y197.582 E2.61918
G1 X105.47 Y197.539 E.01713
G1 X104.936 Y197.416 E.01632
G1 X104.456 Y197.228 E.01534
G1 X104.009 Y196.973 E.01534
G1 X103.566 Y196.623 E.01683
G1 X103.214 Y196.246 E.01534
G1 X102.921 Y195.823 E.01535
G1 X102.685 Y195.347 E.01582
G1 X102.514 Y194.808 E.01682
G1 X102.433 Y194.297 E.01542
G1 X102.418 Y193.975 E.00961
G1 X102.418 Y106.043 E2.61918
G1 X102.461 Y105.47 E.01713
G1 X102.584 Y104.936 E.01632
G1 X102.772 Y104.456 E.01534
G1 X103.027 Y104.009 E.01534
G1 X103.327 Y103.629 E.01444
G1 X103.624 Y103.863 F9000
G1 F1800
G1 X103.662 Y103.816 E.0018
G1 X103.998 Y103.504 E.01367
G1 X104.363 Y103.251 E.01323
G1 X104.787 Y103.039 E.01412
G1 X105.287 Y102.881 E.01563
G1 X105.735 Y102.809 E.01351
G1 X106.036 Y102.795 E.00898
G1 X193.946 Y102.795 E2.61853
G1 X194.464 Y102.834 E.01548
G1 X194.96 Y102.948 E.01515
G1 X195.373 Y103.11 E.01321
G1 X195.772 Y103.336 E.01367
G1 X196.184 Y103.662 E.01564
G1 X196.496 Y103.998 E.01367
G1 X196.749 Y104.363 E.01323
G1 X196.961 Y104.787 E.01412
G1 X197.119 Y105.287 E.01563
G1 X197.191 Y105.735 E.01352
G1 X197.205 Y106.021 E.00854
G1 X197.205 Y193.938 E2.61874
G1 X197.166 Y194.465 E.01574
G1 X197.052 Y194.961 E.01514
G1 X196.89 Y195.373 E.01319
G1 X196.664 Y195.772 E.01367
G1 X196.338 Y196.184 E.01564
G1 X196.002 Y196.496 E.01367
G1 X195.637 Y196.749 E.01323
G1 X195.213 Y196.961 E.01412
G1 X194.713 Y197.119 E.01563
G1 X194.265 Y197.191 E.01351
G1 X193.964 Y197.205 E.00898
G1 X106.062 Y197.205 E2.6183
G1 X105.535 Y197.166 E.01574
G1 X105.039 Y197.052 E.01514
G1 X104.627 Y196.89 E.01319
G1 X104.228 Y196.664 E.01367
G1 X103.816 Y196.338 E.01564
G1 X103.504 Y196.002 E.01367
G1 X103.251 Y195.637 E.01323
G1 X103.039 Y195.213 E.01412
G1 X102.881 Y194.713 E.01563
G1 X102.809 Y194.265 E.01351
G1 X102.795 Y193.964 E.00898
G1 X102.795 Y106.062 E2.6183
G1 X102.834 Y105.535 E.01574
G1 X102.948 Y105.039 E.01514
G1 X103.11 Y104.627 E.01319
G1 X103.336 Y104.228 E.01367
G1 X103.599 Y103.895 E.01265
G1 X103.896 Y104.13 F9000
G1 F1800
G1 X103.946 Y104.067 E.00238
G1 X104.229 Y103.804 E.01151
G1 X104.549 Y103.581 E.01161
G1 X104.921 Y103.394 E.01241
G1 X105.383 Y103.247 E.01442
G1 X105.768 Y103.186 E.01161
G1 X106.048 Y103.172 E.00836
G1 X193.927 Y103.172 E2.61763
G1 X194.399 Y103.207 E.01409
G1 X194.856 Y103.312 E.01397
G1 X195.217 Y103.455 E.01156
G1 X195.553 Y103.645 E.01151
G1 X195.933 Y103.946 E.01442
G1 X196.196 Y104.229 E.01151
G1 X196.419 Y104.549 E.01161
G1 X196.606 Y104.921 E.01241
G1 X196.753 Y105.383 E.01442
G1 X196.814 Y105.768 E.01163
G1 X196.828 Y106.033 E.00791
G1 X196.828 Y193.92 E2.61783
G1 X196.792 Y194.4 E.01434
G1 X196.688 Y194.857 E.01396
G1 X196.545 Y195.217 E.01155
G1 X196.355 Y195.553 E.01151
G1 X196.054 Y195.933 E.01442
G1 X195.771 Y196.196 E.01151
G1 X195.451 Y196.419 E.01161
G1 X195.079 Y196.606 E.01241
G1 X194.617 Y196.753 E.01442
G1 X194.232 Y196.814 E.01161
G1 X193.952 Y196.828 E.00836
G1 X106.08 Y196.828 E2.6174
G1 X105.6 Y196.792 E.01434
G1 X105.143 Y196.688 E.01396
G1 X104.783 Y196.545 E.01155
G1 X104.447 Y196.355 E.01151
G1 X104.067 Y196.054 E.01442
G1 X103.804 Y195.771 E.01151
G1 X103.581 Y195.451 E.01161
G1 X103.394 Y195.079 E.01241
G1 X103.247 Y194.617 E.01442
G1 X103.186 Y194.232 E.01161
G1 X103.172 Y193.952 E.00836
G1 X103.172 Y106.08 E2.6174
G1 X103.208 Y105.6 E.01434
G1 X103.312 Y105.143 E.01396
G1 X103.455 Y104.783 E.01155
G1 X103.645 Y104.447 E.01151
G1 X103.871 Y104.161 E.01085
G1 X104.168 Y104.396 F9000
G1 F1800
G1 X104.23 Y104.318 E.00297
G1 X104.473 Y104.094 E.00984
G1 X104.736 Y103.91 E.00955
G1 X105.056 Y103.748 E.01069
G1 X105.478 Y103.614 E.01321
G1 X105.801 Y103.562 E.00973
G1 X106.06 Y103.549 E.00773
G1 X193.909 Y103.549 E2.61672
G1 X194.334 Y103.581 E.0127
G1 X194.752 Y103.676 E.01278
G1 X195.047 Y103.793 E.00944
G1 X195.335 Y103.955 E.00984
G1 X195.682 Y104.23 E.0132
G1 X195.906 Y104.473 E.00984
G1 X196.09 Y104.736 E.00955
G1 X196.252 Y105.056 E.01069
G1 X196.386 Y105.478 E.01321
G1 X196.438 Y105.802 E.00975
G1 X196.451 Y106.046 E.00729
G1 X196.451 Y193.902 E2.61692
G1 X196.419 Y194.335 E.01295
G1 X196.323 Y194.753 E.01276
G1 X196.207 Y195.047 E.00943
G1 X196.045 Y195.335 E.00984
G1 X195.77 Y195.682 E.0132
G1 X195.527 Y195.906 E.00984
G1 X195.264 Y196.09 E.00955
G1 X194.944 Y196.252 E.01069
G1 X194.522 Y196.386 E.01321
G1 X194.199 Y196.438 E.00973
G1 X193.94 Y196.451 E.00773
G1 X106.098 Y196.451 E2.6165
G1 X105.665 Y196.419 E.01295
G1 X105.247 Y196.323 E.01276
G1 X104.953 Y196.207 E.00943
G1 X104.665 Y196.045 E.00984
G1 X104.318 Y195.77 E.0132
G1 X104.094 Y195.527 E.00984
G1 X103.91 Y195.264 E.00955
G1 X103.748 Y194.944 E.01069
G1 X103.614 Y194.522 E.01321
G1 X103.562 Y194.199 E.00973
G1 X103.549 Y193.94 E.00773
G1 X103.549 Y106.098 E2.6165
G1 X103.581 Y105.665 E.01295
G1 X103.677 Y105.247 E.01276
G1 X103.793 Y104.953 E.00943
G1 X103.955 Y104.665 E.00984
G1 X104.143 Y104.427 E.00905
G1 X104.442 Y104.668 F9000
G1 F1800
G1 X104.503 Y104.592 E.00289
G1 X104.856 Y104.298 E.0137
G1 X105.233 Y104.097 E.01271
G1 X105.613 Y103.981 E.01185
G1 X106.045 Y103.926 E.01297
G1 X193.942 Y103.926 E2.61815
G1 X194.749 Y104.093 E.02453
G1 X194.856 Y104.132 E.00339
G1 X195.156 Y104.3 E.01025
G1 X195.483 Y104.578 E.0128
G1 X195.702 Y104.855 E.0105
G1 X195.903 Y105.233 E.01275
G1 X196.019 Y105.613 E.01185
G1 X196.074 Y106.045 E.01297
G1 X196.074 Y193.942 E2.61815
G1 X195.907 Y194.749 E.02453
G1 X195.868 Y194.856 E.00339
G1 X195.7 Y195.156 E.01025
G1 X195.422 Y195.483 E.0128
G1 X195.145 Y195.702 E.0105
G1 X194.767 Y195.903 E.01275
G1 X194.387 Y196.019 E.01185
G1 X193.955 Y196.074 E.01297
G1 X106.058 Y196.074 E2.61815
G1 X105.251 Y195.907 E.02453
G1 X105.144 Y195.868 E.00339
G1 X104.844 Y195.7 E.01025
G1 X104.517 Y195.422 E.0128
G1 X104.298 Y195.145 E.0105
G1 X104.097 Y194.767 E.01275
G1 X103.981 Y194.387 E.01185
G1 X103.926 Y193.955 E.01297
G1 X103.926 Y106.058 E2.61815
G1 X104.093 Y105.251 E.02453
M73 P0 R216
G1 X104.132 Y105.144 E.00339
G1 X104.301 Y104.843 E.01029
G1 X104.417 Y104.699 E.00552
G1 X104.71 Y104.935 F9000
G1 F1800
G1 X104.804 Y104.82 E.00442
G1 X105.097 Y104.588 E.01114
G1 X105.41 Y104.43 E.01044
G1 X105.656 Y104.356 E.00767
G1 X106.038 Y104.303 E.01147
G1 X193.954 Y104.303 E2.61871
G1 X194.674 Y104.462 E.02198
G1 X194.913 Y104.588 E.00805
G1 X195.18 Y104.804 E.01022
G1 X195.412 Y105.097 E.01114
G1 X195.57 Y105.41 E.01044
G1 X195.644 Y105.656 E.00767
G1 X195.697 Y106.038 E.01147
G1 X195.697 Y193.954 E2.61871
G1 X195.538 Y194.674 E.02198
G1 X195.412 Y194.913 E.00805
G1 X195.196 Y195.18 E.01022
G1 X194.903 Y195.412 E.01114
G1 X194.59 Y195.57 E.01044
G1 X194.344 Y195.644 E.00767
G1 X193.962 Y195.697 E.01147
G1 X106.046 Y195.697 E2.61871
G1 X105.326 Y195.538 E.02198
G1 X105.087 Y195.412 E.00805
G1 X104.82 Y195.196 E.01022
G1 X104.588 Y194.903 E.01114
G1 X104.43 Y194.59 E.01044
G1 X104.356 Y194.344 E.00767
G1 X104.303 Y193.962 E.01147
G1 X104.303 Y106.046 E2.61871
G1 X104.462 Y105.326 E.02198
G1 X104.588 Y105.087 E.00805
G1 X104.685 Y104.966 E.00461
G1 X104.983 Y105.189 F9000
G1 F1800
G1 X105.038 Y105.115 E.00275
G1 X105.264 Y104.925 E.00879
G1 X105.521 Y104.79 E.00863
G1 X105.706 Y104.73 E.00581
G1 X106.03 Y104.68 E.00977
G1 X193.965 Y104.68 E2.61928
G1 X194.504 Y104.798 E.01642
G1 X194.682 Y104.886 E.00592
G1 X194.885 Y105.038 E.00756
G1 X195.075 Y105.264 E.00879
G1 X195.21 Y105.521 E.00863
G1 X195.27 Y105.706 E.00581
G1 X195.32 Y106.03 E.00977
G1 X195.32 Y193.965 E2.61928
G1 X195.202 Y194.504 E.01642
G1 X195.114 Y194.682 E.00592
G1 X194.962 Y194.885 E.00756
G1 X194.736 Y195.075 E.00879
G1 X194.479 Y195.21 E.00863
G1 X194.294 Y195.27 E.00581
G1 X193.97 Y195.32 E.00977
G1 X106.035 Y195.32 E2.61928
G1 X105.496 Y195.202 E.01642
G1 X105.318 Y195.114 E.00592
G1 X105.115 Y194.962 E.00756
G1 X104.925 Y194.736 E.00879
G1 X104.79 Y194.479 E.00863
G1 X104.73 Y194.294 E.00581
G1 X104.68 Y193.97 E.00977
G1 X104.68 Y106.035 E2.61928
G1 X104.798 Y105.496 E.01642
G1 X104.886 Y105.318 E.00592
G1 X104.959 Y105.221 E.00362
G1 X105.266 Y105.428 F9000
G1 F1800
G1 X105.286 Y105.398 E.00105
G1 X105.437 Y105.261 E.00608
G1 X105.647 Y105.145 E.00714
G1 X105.763 Y105.102 E.00369
G1 X106.022 Y105.057 E.00781
G1 X193.977 Y105.057 E2.6199
G1 X194.339 Y105.137 E.01102
M73 P1 R216
G1 X194.467 Y105.196 E.00421
G1 X194.602 Y105.286 E.00481
G1 X194.739 Y105.437 E.00608
G1 X194.855 Y105.647 E.00714
G1 X194.898 Y105.763 E.00369
G1 X194.943 Y106.022 E.00781
G1 X194.943 Y193.977 E2.6199
G1 X194.863 Y194.339 E.01102
G1 X194.804 Y194.467 E.00421
G1 X194.714 Y194.602 E.00481
G1 X194.563 Y194.739 E.00608
G1 X194.353 Y194.855 E.00714
G1 X194.237 Y194.898 E.00369
G1 X193.978 Y194.943 E.00781
G1 X106.023 Y194.943 E2.6199
G1 X105.661 Y194.863 E.01102
G1 X105.533 Y194.804 E.00421
G1 X105.398 Y194.714 E.00481
G1 X105.261 Y194.563 E.00608
G1 X105.145 Y194.353 E.00714
G1 X105.102 Y194.237 E.00369
G1 X105.057 Y193.978 E.00781
G1 X105.057 Y106.023 E2.6199
G1 X105.137 Y105.661 E.01102
G1 X105.196 Y105.533 E.00421
G1 X105.244 Y105.461 E.00257
G1 X105.557 Y105.672 F9000
G1 F1800
G1 X105.606 Y105.598 E.00265
G1 X105.836 Y105.472 E.00779
G1 X106.012 Y105.434 E.00537
G1 X193.99 Y105.434 E2.62056
G1 X194.249 Y105.503 E.00799
G1 X194.402 Y105.606 E.0055
G1 X194.528 Y105.836 E.00779
G1 X194.566 Y106.012 E.00537
G1 X194.566 Y193.99 E2.62056
G1 X194.497 Y194.249 E.008
G1 X194.394 Y194.402 E.0055
G1 X194.164 Y194.528 E.00779
G1 X193.988 Y194.566 E.00537
G1 X106.01 Y194.566 E2.62056
G1 X105.751 Y194.497 E.008
G1 X105.598 Y194.394 E.0055
G1 X105.472 Y194.164 E.00779
G1 X105.434 Y193.988 E.00537
G1 X105.434 Y106.01 E2.62056
G1 X105.503 Y105.751 E.00799
G1 X105.534 Y105.705 E.00166
G1 X105.86 Y105.874 F9000
G1 F1800
G1 X106 Y105.811 E.00457
G1 X194 Y105.811 E2.62122
G1 X194.126 Y105.86 E.00402
G1 X194.189 Y106 E.00457
G1 X194.189 Y194 E2.62122
G1 X194.14 Y194.126 E.00402
G1 X194 Y194.189 E.00457
G1 X106 Y194.189 E2.62122
G1 X105.874 Y194.14 E.00402
M73 P1 R215
G1 X105.811 Y194 E.00457
G1 X105.811 Y106 E2.62122
G1 X105.845 Y105.911 E.00283
;WIPE_START
G1 X106 Y105.811
G1 X106.816 Y105.811
;WIPE_END
G1 X193.69 Y106.31 F9000
;TYPE:Outer wall
;WIDTH:0.419999
G1 F1800
G1 X193.69 Y193.69 E2.60275
G1 X106.31 Y193.69 E2.60275
G1 X106.31 Y106.31 E2.60275
G1 X193.65 Y106.31 E2.60156
;WIPE_START
G1 X193.65 Y107.31
;WIPE_END
G1 X128.479 Y171.71 F9000
G1 F1800
G1 X128.338 Y171.647 E.00461
G1 X128.29 Y171.521 E.00399
G1 X128.29 Y128.479 E1.2821
G1 X128.353 Y128.338 E.00461
G1 X128.479 Y128.29 E.00399
G1 X171.521 Y128.29 E1.2821
G1 X171.662 Y128.353 E.00461
G1 X171.71 Y128.479 E.00399
G1 X171.71 Y171.521 E1.2821
G1 X171.647 Y171.662 E.00461
G1 X171.521 Y171.71 E.00399
G1 X128.519 Y171.71 E1.28091
;WIPE_START
G1 X128.338 Y171.647
G1 X128.29 Y171.521
G1 X128.29 Y170.847
;WIPE_END
G1 X106.423 Y192.814 F9000
;TYPE:Bottom surface
;WIDTH:0.420006
G1 F1800
G1 X107.016 Y193.407 E.02497
G1 X107.549 Y193.407 E.01588
G1 X106.593 Y192.451 E.04029
G1 X106.593 Y191.918 E.01588
G1 X108.082 Y193.407 E.06275
G1 X108.616 Y193.407 E.01588
